source/images/icons/icon-editorial/localisation-etoile.svg

<?xml version="1.0" encoding="UTF-8"?>
<svg width="80px" height="80px" viewBox="0 0 80 80" version="1.1" xmlns="http://www.w3.org/2000/svg" xmlns:xlink="http://www.w3.org/1999/xlink">
    <!-- Generator: Sketch 55.2 (78181) - https://sketchapp.com -->
    <title>Illustrative Icons/Localisation-Etoile</title>
    <desc>Created with Sketch.</desc>
    <g id="Illustrative-Icons/Localisation-Etoile" stroke="none" stroke-width="1" fill="none" fill-rule="evenodd">
        <path d="M27.4551245,25.7816667 C27.2319326,26.4682563 27.4761699,27.2204803 28.0601245,27.645 L33.8534578,31.855 L31.6417912,38.6666667 C31.4185576,39.3534484 31.6630118,40.1058627 32.2472712,40.5302955 C32.8315307,40.9547283 33.6226597,40.954609 34.2067912,40.53 L40.0001245,36.32 L45.7934578,40.53 C46.3775893,40.954609 47.1687183,40.9547283 47.7529778,40.5302955 C48.3372372,40.1058627 48.5816914,39.3534484 48.3584578,38.6666667 L46.1451245,31.855 L51.9384578,27.645 C52.5226316,27.2205471 52.7670291,26.4681911 52.5438143,25.7814638 C52.3205994,25.0947365 51.6805515,24.6298618 50.9584578,24.63 L43.7917912,24.63 L41.5784578,17.8183333 C41.3536519,17.1343758 40.7150798,16.6720832 39.9951245,16.6720832 C39.2751692,16.6720832 38.6365971,17.1343758 38.4117912,17.8183333 L36.1984578,24.63 L29.0317911,24.63 C28.3128478,24.6336424 27.6772716,25.0978952 27.4551245,25.7816667 Z M37.4134578,27.9633334 C38.1354745,27.9632886 38.7753547,27.4983493 38.9984578,26.8116667 L39.9984578,23.7266667 L40.9984578,26.8116667 C41.221561,27.4983493 41.8614412,27.9632886 42.5834578,27.9633334 L45.8334578,27.9633334 L43.2101245,29.87 C42.62617,30.2945198 42.3819327,31.0467437 42.6051245,31.7333334 L43.6051245,34.8183334 L40.9817912,32.9116667 C40.3974944,32.4869132 39.6060879,32.4869132 39.0217912,32.9116667 L36.3967912,34.8166667 L37.3967912,31.7316667 C37.619983,31.0450771 37.3757457,30.2928531 36.7917912,29.8683334 L34.1667912,27.9633334 L37.4134578,27.9633334 Z M59.8784579,14.8333333 C56.6165731,10.5751477 52.0801165,7.46987329 46.9301245,5.97 C46.044628,5.71318761 45.1186036,6.22283681 44.8617912,7.10833335 C44.6049788,7.99382988 45.114628,8.91985425 46.0001245,9.17666667 C50.4632853,10.4777555 54.3946312,13.1694983 57.2217912,16.86 C60.1166605,20.6274601 61.6799695,25.2488054 61.6667912,30 C61.6667912,41.5766667 55.5234578,52.3600001 50.3701245,59.3666667 C47.2683613,63.5719924 43.7979655,67.4925021 40.0001245,71.0816667 C36.202328,67.4924591 32.7319359,63.5719534 29.6301245,59.3666667 C20.2934578,46.6666667 18.3334578,36.39 18.3334578,30 C18.3185483,25.282086 19.8578369,20.6905778 22.7134578,16.935 C25.5039029,13.258707 29.3875757,10.5612582 33.8067912,9.23000001 C34.689066,8.96720451 35.1912533,8.03894156 34.9284578,7.15666667 C34.6656623,6.27439178 33.7373994,5.77220451 32.8551245,6.035 C27.7565574,7.57013816 23.2754762,10.6812221 20.0551245,14.9216667 C16.7593868,19.2559533 14.9828731,24.5550363 15,30 C15,35.5466667 16.2717911,41.3566667 18.7784578,47.2650001 C20.7651245,51.9466667 23.5284578,56.7033334 26.9917911,61.4050001 C32.8701245,69.3833334 38.6717912,74.3900001 38.9151245,74.5983334 C39.5388312,75.131813 40.4580845,75.131813 41.0817912,74.5983334 C41.3251245,74.3883334 47.1267912,69.3833334 53.0051245,61.4050001 C56.4684579,56.7033334 59.2317912,51.9466667 61.2184579,47.2650001 C63.7284579,41.3566667 65.0002616,35.5466667 65.0002616,30 C65.0183597,24.5169627 63.2170524,19.1827952 59.8784579,14.8333333 Z M40.0001245,8.33333334 C40.9205991,8.33333334 41.6667912,7.58714125 41.6667912,6.66666667 C41.6667912,5.74619208 40.9205991,5 40.0001245,5 C39.0796499,5 38.3334578,5.74619208 38.3334578,6.66666667 C38.3334578,7.58714125 39.0796499,8.33333334 40.0001245,8.33333334 Z" id="Shape-color" fill="#ADB5BD"></path>
    </g>
</svg>

<svg width="80" height="80">
    <title>
        Illustrative Icons/Localisation-Etoile
    </title>
    <path d="M27.455 25.782a1.667 1.667 0 0 0 .605 1.863l5.793 4.21-2.211 6.812a1.667 1.667 0 0 0 2.565 1.863L40 36.32l5.793 4.21a1.667 1.667 0 0 0 2.565-1.863l-2.213-6.812 5.793-4.21a1.667 1.667 0 0 0-.98-3.015h-7.166l-2.214-6.812a1.667 1.667 0 0 0-3.166 0l-2.214 6.812h-7.166a1.667 1.667 0 0 0-1.577 1.152zm9.958 2.181c.722 0 1.362-.465 1.585-1.151l1-3.085 1 3.085a1.667 1.667 0 0 0 1.585 1.151h3.25L43.21 29.87a1.667 1.667 0 0 0-.605 1.863l1 3.085-2.623-1.906a1.667 1.667 0 0 0-1.96 0l-2.625 1.905 1-3.085a1.667 1.667 0 0 0-.605-1.864l-2.625-1.905h3.246zm22.465-13.13A25.18 25.18 0 0 0 46.93 5.97 1.67 1.67 0 0 0 46 9.177a21.833 21.833 0 0 1 11.222 7.683A21.468 21.468 0 0 1 61.667 30c0 11.577-6.144 22.36-11.297 29.367A87.945 87.945 0 0 1 40 71.082a87.957 87.957 0 0 1-10.37-11.715C20.293 46.667 18.333 36.39 18.333 30a21.473 21.473 0 0 1 4.38-13.065A21.833 21.833 0 0 1 33.807 9.23a1.667 1.667 0 0 0-.952-3.195 25.193 25.193 0 0 0-12.8 8.887A24.783 24.783 0 0 0 15 30c0 5.547 1.272 11.357 3.778 17.265 1.987 4.682 4.75 9.438 8.214 14.14 5.878 7.978 11.68 12.985 11.923 13.193a1.667 1.667 0 0 0 2.167 0c.243-.21 6.045-5.215 11.923-13.193 3.463-4.702 6.227-9.458 8.213-14.14C63.728 41.357 65 35.547 65 30a24.774 24.774 0 0 0-5.122-15.167zM40 8.333A1.667 1.667 0 1 0 40 5a1.667 1.667 0 0 0 0 3.333z" fill="#ADB5BD" fill-rule="evenodd"/>
</svg>
